!! 00000] TT[00
!!!OTL: Hebao diao
!!!ARE: Asia, China, Shanxi, Weinan
!! Ethnic Group: Han
!! I, 80
!!!SCT: C0458
!!!YEM: Copyright 1995, estate of Helmut Schaffrath.
**kern
*ICvox
*Ivox
!! Mixed meters:  2/4; 3/4
*M3/4
*k[f#]
*G:
{8dd
16dd
16ee
8dd
16cc
16a
=1
8.dd
16ee
16dd
16cc
8dd}
=2
{8a
8dd
8cc
8dd
=3
8dd
16a
16g
8fn
8g
=4
16a
16cc
16b
16a
16a
16g
16fn
16e
=5
4d
4d}
=6
{8dd
8a
16a
16g
16fn
16d
=7
8g
4g
8a}
=8
{8a
8gg
8dd
16dd
16dd
=9
8dd
16a
16g
8fn
16a
16dd
=10
16a
16g
16fn
16g
4d
8g}
{16g
16a
=11
*M2/4
4dd
8dd
16cc
16a
=12
8cc
16a
16g
8fn
8g
=13
16a
16cc
16b
16a
16a
16g
16fn
16e
=14
4d
4d}
==
!!!AGN: Wuge, Yangge. Biaoda aiqing
!! Notation aus Nord Shanxi. Um die Tonart, ein Sonderfall der
!!    Heptatonik, streitet man in China. Hier ist Zhi angenommen.
!!    Das Tonmodell, 10 Toene) ist auf getrenntem Zettel notiert.
!!    In Takt 4 und 13 ist fuer die beiden Achtel -7_1_ in Klammern
!!    auch -7-5 notiert.
!!!ONB: ESAC (Essen Associative Code) Database: CHINA
!!!AMT: irregular
!!!AIN: vox
!!!EED: Helmut Schaffrath
!!!EEV: 1.0
*-
